X:2996
T:Choice Wife
M:9/8
L:1/8
K:D Mixolydian
FGA AFA c2A|BAG FAF GED|FGA AFA d3|dfe dcA GED:|!
dcd ege c2A|dcd faf gfe|afa ged c2A|BAG FAF GED:|!
FGA AFd AFd|AFd AFA GED|FGA AFA c2A|BAG FAF GED:|!
DED DED c3|c2B c2A GED|DED DED d3|dfe dcA GED:|!
dcd ege c2A|dcd faf gfe|afa ged c2A|BAG FAF GED:|!


